src/modules/75-cf/pages/onboarding/views/sdk.svg

<svg fill="none" height="134" viewBox="0 0 180 134" width="180" xmlns="http://www.w3.org/2000/svg"><path d="m36.625 107.341c-3.2102-.955-6.2579-2.288-9.0915-3.947l-.9587.959c-2.3188 2.319-6.0782 2.319-8.3969 0l-6.5309-6.5309c-2.31877-2.3187-2.31877-6.0781 0-8.3969l.9586-.9587c-1.6587-2.8336-2.99154-5.8813-3.94694-9.0915h-1.72116c-3.27919 0-5.9375-2.6583-5.9375-5.9375v-11.875c0-3.2792 2.65831-5.9375 5.9375-5.9375h1.72116c.9554-3.2102 2.28824-6.2579 3.94694-9.0915l-.9586-.9587c-2.31877-2.3188-2.31877-6.0782 0-8.3969l6.5309-6.5309c2.3187-2.3188 6.0781-2.3188 8.3969 0l.9587.9586c2.8336-1.6587 5.8813-2.9915 9.0915-3.9469v-1.7212c0-3.2792 2.6583-5.9375 5.9375-5.9375h11.875c3.2792 0 5.9375 2.6583 5.9375 5.9375v1.7212c3.2102.9554 6.2579 2.2882 9.0915 3.9469l.9587-.9586c2.3188-2.3188 6.0782-2.3188 8.3969 0l6.5309 6.5309c2.3188 2.3187 2.3188 6.0781 0 8.3969l-.9586.9587c1.6587 2.8336 2.9915 5.8813 3.9469 9.0915h1.7212c3.2792 0 5.9375 2.6583 5.9375 5.9375v11.875c0 3.2792-2.6583 5.9375-5.9375 5.9375h-1.7212c-.9554 3.2102-2.2882 6.2579-3.9469 9.0915l.9586.9587c2.3188 2.3188 2.3188 6.0782 0 8.3969l-6.5309 6.5309c-2.3187 2.319-6.0781 2.319-8.3969 0l-.9587-.959c-2.8336 1.659-5.8813 2.992-9.0915 3.947v1.722c0 3.279-2.6583 5.937-5.9375 5.937h-11.875c-3.2792 0-5.9375-2.658-5.9375-5.937z" stroke="#0092e4" stroke-linecap="round" stroke-linejoin="round" stroke-width=".8"/><circle cx="48.0654" cy="67.0651" fill="#fff" r="23.7389" stroke="#0092e4" stroke-width=".968933"/><path clip-rule="evenodd" d="m38.911 61.1387c-.7621.4224-1.1413 1.2087-.8428 1.7474l8.1427 14.6897c.2985.5386 1.1663.6337 1.9284.2112.7621-.4224 1.1413-1.2087.8427-1.7473l-8.1426-14.6897c-.2986-.5386-1.1664-.6337-1.9284-.2113zm2.2697.7249 5.1618 9.312c1.2628-4.2432 9.6108-1.4461 11.9429-6.6201l-5.1617-9.312c-2.1254 5.677-11.0978 1.6234-11.943 6.6201z" fill="#0092e4" fill-rule="evenodd"/><circle cx="143.218" cy="82.3077" fill="#fff" r="3.27914" stroke="#0278d5" stroke-width=".819785"/><path d="m149.317 70.377h24.5241v24.5241h-24.5241z" fill="#06b7c4" opacity=".01"/><path clip-rule="evenodd" d="m162.323 77.0911c-.003.0663.027.1298.08.1695l10.249 7.6492c.533.3981.536 1.1965.006 1.5985l-10.477 7.9369c-.356.2701-.849.2706-1.206.0012l-10.562-7.9695c-.52-.3919-.532-1.1677-.026-1.5764l1.614-1.3029c.072-.0583.175-.0592.249-.0022l.55.4282c.157.1221.154.3603-.006.4783l-1.193.8792c-.107.0793-.108.2397-.002.3204l8.896 6.7339c.131.0997.32.0058.32-.1594v-4.0686l-10.433-7.8331c-.533-.4001-.532-1.1998.001-1.5997l10.606-7.9545c.35-.2631.832-.267 1.187-.0096l10.762 7.803c.566.4101.547 1.2592-.036 1.6441l-2.029 1.3398-.837-.8189c-.093-.0915-.075-.2468.037-.3143l1.403-.8439c.124-.0746.13-.2523.012-.3353l-8.68-6.0674c-.129-.0903-.307-.0027-.314.1547zm-1.173-4.066c0-.1648-.188-.2589-.32-.1601l-8.603 6.4481c-.107.0798-.107.2394-.001.3196l9.078 6.8582c.165.1249.391.1349.566.0251l4.271-2.6679c.073-.0454.166-.0394.233.0149l.866.7089c.106.0865.096.2514-.02.3241l-5.105 3.2077c-.058.0365-.094.1005-.094.1693v4.0585c0 .166.191.2598.322.1583l8.589-6.6261c.104-.0803.104-.2375-.001-.3173l-9.146-6.9834c-.073-.0554-.174-.0546-.245.0019l-3.873 3.0504c-.077.0604-.186.0566-.258-.0089l-.745-.6753c-.092-.0831-.087-.2288.011-.3053l4.399-3.4607c.048-.0379.076-.0958.076-.1572z" fill="#06b7c4" fill-rule="evenodd"/><path d="m149.345 102.995h24.5241v24.5241h-24.5241z" fill="#0092e4" opacity=".01"/><path clip-rule="evenodd" d="m162.351 109.709c-.003.067.027.13.08.17l10.249 7.649c.534.398.536 1.196.006 1.598l-10.476 7.937c-.357.27-.85.271-1.207.002l-10.562-7.97c-.519-.392-.532-1.168-.026-1.576l1.615-1.303c.072-.059.175-.059.248-.002l.55.428c.157.122.154.36-.006.478l-1.192.879c-.108.08-.109.24-.002.321l8.895 6.734c.132.099.321.005.321-.16v-4.068l-10.433-7.834c-.533-.4-.533-1.199 0-1.599l10.606-7.955c.351-.263.832-.267 1.187-.009l10.763 7.803c.565.41.547 1.259-.036 1.644l-2.029 1.34-.837-.819c-.094-.092-.076-.247.036-.315l1.403-.843c.125-.075.131-.253.012-.336l-8.679-6.067c-.13-.091-.308-.003-.315.154zm-1.172-4.066c0-.165-.189-.259-.32-.16l-8.604 6.448c-.107.08-.107.24-.001.32l9.078 6.858c.166.125.391.135.567.025l4.271-2.668c.072-.045.166-.039.232.015l.867.709c.105.087.095.251-.021.324l-5.105 3.208c-.058.036-.093.1-.093.169v4.059c0 .166.19.259.322.158l8.588-6.626c.105-.08.104-.238 0-.317l-9.147-6.984c-.072-.055-.173-.054-.245.002l-3.873 3.05c-.076.061-.186.057-.258-.008l-.745-.676c-.092-.083-.086-.229.011-.305l4.399-3.461c.048-.038.077-.096.077-.157z" fill="#af481a" fill-rule="evenodd"/><path d="m149.317 6.12988h24.5241v24.5241h-24.5241z" fill="#000" opacity=".01"/><path clip-rule="evenodd" d="m162.323 12.8441c-.003.0663.027.1297.08.1694l10.249 7.6492c.533.3982.536 1.1966.006 1.5985l-10.477 7.9369c-.356.2701-.849.2706-1.206.0012l-10.562-7.9695c-.52-.3919-.532-1.1677-.026-1.5764l1.614-1.3029c.072-.0583.175-.0592.249-.0022l.55.4283c.157.1221.154.3602-.006.4782l-1.193.8792c-.107.0793-.108.2398-.002.3204l8.896 6.734c.131.0997.32.0057.32-.1595v-4.0686l-10.433-7.8331c-.533-.4001-.532-1.1998.001-1.5997l10.606-7.95445c.35-.26308.832-.26697 1.187-.00961l10.762 7.80296c.566.4102.547 1.2592-.036 1.6442l-2.029 1.3398-.837-.8189c-.093-.0916-.075-.2469.037-.3144l1.403-.8438c.124-.0747.13-.2524.012-.3353l-8.68-6.06749c-.129-.09029-.307-.00268-.314.15474zm-1.173-4.06609c0-.16478-.188-.25887-.32-.16005l-8.603 6.44804c-.107.0798-.107.2394-.001.3197l9.078 6.8581c.165.1249.391.1349.566.0251l4.271-2.6678c.073-.0455.166-.0395.233.0148l.866.7089c.106.0865.096.2514-.02.3241l-5.105 3.2077c-.058.0366-.094.1005-.094.1693v4.0585c0 .1661.191.2598.322.1584l8.589-6.6261c.104-.0803.104-.2375-.001-.3173l-9.146-6.9835c-.073-.0554-.174-.0546-.245.0019l-3.873 3.0504c-.077.0604-.186.0567-.258-.0089l-.745-.6752c-.092-.0832-.087-.2289.011-.3054l4.399-3.4606c.048-.038.076-.0959.076-.1572z" fill="#22222a" fill-rule="evenodd"/><path d="m149.183 38.6152h23.991v23.991h-23.991z" fill="#592baa" opacity=".01"/><path clip-rule="evenodd" d="m161.907 45.1812c-.003.0663.027.1297.08.1694l10.001 7.4643c.533.3981.536 1.1965.006 1.5985l-10.213 7.7369c-.356.2702-.849.2706-1.206.0012l-10.297-7.7695c-.519-.3919-.532-1.1677-.026-1.5764l1.555-1.2549c.072-.0584.175-.0593.248-.0022l.529.4115c.157.1221.154.3602-.006.4782l-1.155.8515c-.107.0793-.108.2398-.002.3205l8.69 6.5787c.132.0997.321.0058.321-.1595v-3.9714l-10.183-7.6453c-.533-.4002-.533-1.1999 0-1.5997l10.34-7.7546c.351-.2631.832-.267 1.187-.0096l10.49 7.6055c.566.4101.547 1.2592-.036 1.6441l-1.959 1.2934-.814-.7971c-.094-.0916-.076-.2469.036-.3144l1.362-.8191c.125-.0747.131-.2524.012-.3354l-8.479-5.9272c-.129-.0902-.307-.0026-.314.1548zm-1.147-3.9663c0-.1647-.188-.2588-.32-.16l-8.405 6.2992c-.107.0798-.107.2394-.001.3196l8.87 6.7011c.166.1249.391.1349.567.0251l4.169-2.6042c.072-.0454.166-.0395.232.0148l.841.6877c.106.0865.095.2514-.021.3241l-4.987 3.1334c-.058.0366-.093.1006-.093.1694v3.959c0 .1661.19.2598.322.1583l8.39-6.4731c.104-.0803.104-.2375 0-.3173l-8.941-6.8262c-.072-.0554-.173-.0546-.245.0019l-3.783 2.9798c-.077.0604-.186.0566-.258-.009l-.722-.6546c-.092-.0832-.087-.2288.01-.3054l4.298-3.3809c.049-.0379.077-.0958.077-.1572z" fill="#592baa" fill-rule="evenodd"/><circle cx="143.218" cy="114.935" fill="#fff" r="3.27914" stroke="#0278d5" stroke-width=".819785"/><path d="m143.88 114.678.277.277v.577h-.513v-.854zm1.045-.427v1.708c0 .188-.153.342-.341.342h-2.733c-.188 0-.341-.154-.341-.342l.001-2.049c0-.188.152-.342.34-.342h1.025l.341.342h1.367c.188 0 .341.154.341.341zm-.512.598-.427-.427h-.598v1.366h1.025z" fill="#0092e4"/><circle cx="143.218" cy="52.5187" fill="#fff" r="3.27914" stroke="#0278d5" stroke-width=".819785"/><circle cx="143.218" cy="18.4737" fill="#fff" r="3.27914" stroke="#0278d5" stroke-width=".819785"/><path d="m143.881 18.2174.276.2767v.5772h-.512v-.8539zm1.045-.4269v1.7077c0 .1879-.154.3415-.342.3415h-2.732c-.188 0-.342-.1536-.342-.3415l.002-2.0492c0-.1879.152-.3416.34-.3416h1.024l.342.3416h1.366c.188 0 .342.1537.342.3415zm-.513.5977-.427-.4269h-.597v1.3661h1.024z" fill="#0092e4"/><g stroke="#0092e4"><path d="m138.93 19.8594h-9.93l.5 95.1406h10.5" stroke-width="1.13484"/><path d="m138.93 82.2754h-9.93" stroke-dasharray="2.84 2.84" stroke-width="1.13484"/><path d="m138.93 52.4863h-9.93" stroke-dasharray="2.84 2.84" stroke-width="1.13484"/><path d="m129 67h-57" stroke-width=".8"/></g></svg>

<svg width="180" height="134" viewBox="0 0 180 134" fill="none" xmlns="http://www.w3.org/2000/svg">
<path d="M36.625 107.341C33.4148 106.386 30.3671 105.053 27.5335 103.394L26.5748 104.353C24.256 106.672 20.4966 106.672 18.1779 104.353L11.647 97.8221C9.32823 95.5034 9.32823 91.744 11.647 89.4252L12.6056 88.4665C10.9469 85.6329 9.61406 82.5852 8.65866 79.375H6.9375C3.65831 79.375 1 76.7167 1 73.4375V61.5625C1 58.2833 3.65831 55.625 6.9375 55.625H8.65866C9.61406 52.4148 10.9469 49.3671 12.6056 46.5335L11.647 45.5748C9.32823 43.256 9.32823 39.4966 11.647 37.1779L18.1779 30.647C20.4966 28.3282 24.256 28.3282 26.5748 30.647L27.5335 31.6056C30.3671 29.9469 33.4148 28.6141 36.625 27.6587V25.9375C36.625 22.6583 39.2833 20 42.5625 20H54.4375C57.7167 20 60.375 22.6583 60.375 25.9375V27.6587C63.5852 28.6141 66.6329 29.9469 69.4665 31.6056L70.4252 30.647C72.744 28.3282 76.5034 28.3282 78.8221 30.647L85.353 37.1779C87.6718 39.4966 87.6718 43.256 85.353 45.5748L84.3944 46.5335C86.0531 49.3671 87.3859 52.4148 88.3413 55.625H90.0625C93.3417 55.625 96 58.2833 96 61.5625V73.4375C96 76.7167 93.3417 79.375 90.0625 79.375H88.3413C87.3859 82.5852 86.0531 85.6329 84.3944 88.4665L85.353 89.4252C87.6718 91.744 87.6718 95.5034 85.353 97.8221L78.8221 104.353C76.5034 106.672 72.744 106.672 70.4252 104.353L69.4665 103.394C66.6329 105.053 63.5852 106.386 60.375 107.341V109.063C60.375 112.342 57.7167 115 54.4375 115H42.5625C39.2833 115 36.625 112.342 36.625 109.063V107.341V107.341Z" stroke="#0092E4" stroke-width="0.8" stroke-linecap="round" stroke-linejoin="round"/>
<circle cx="48.0654" cy="67.0651" r="23.7389" fill="white" stroke="#0092E4" stroke-width="0.968933"/>
<path fill-rule="evenodd" clip-rule="evenodd" d="M38.911 61.1387C38.1489 61.5611 37.7697 62.3474 38.0682 62.8861L46.2109 77.5758C46.5094 78.1144 47.3772 78.2095 48.1393 77.787C48.9014 77.3646 49.2806 76.5783 48.982 76.0397L40.8394 61.35C40.5408 60.8114 39.673 60.7163 38.911 61.1387ZM41.1807 61.8636L46.3425 71.1756C47.6053 66.9324 55.9533 69.7295 58.2854 64.5555L53.1237 55.2435C50.9983 60.9205 42.0259 56.8669 41.1807 61.8636Z" fill="#0092E4"/>
<circle cx="143.218" cy="82.3077" r="3.27914" fill="white" stroke="#0278D5" stroke-width="0.819785"/>
<rect opacity="0.01" x="149.317" y="70.377" width="24.5241" height="24.5241" fill="#06B7C4"/>
<path fill-rule="evenodd" clip-rule="evenodd" d="M162.323 77.0911C162.32 77.1574 162.35 77.2209 162.403 77.2606L172.652 84.9098C173.185 85.3079 173.188 86.1063 172.658 86.5083L162.181 94.4452C161.825 94.7153 161.332 94.7158 160.975 94.4464L150.413 86.4769C149.893 86.085 149.881 85.3092 150.387 84.9005L152.001 83.5976C152.073 83.5393 152.176 83.5384 152.25 83.5954L152.8 84.0236C152.957 84.1457 152.954 84.3839 152.794 84.5019L151.601 85.3811C151.494 85.4604 151.493 85.6208 151.599 85.7015L160.495 92.4354C160.626 92.5351 160.815 92.4412 160.815 92.276V88.2074L150.382 80.3743C149.849 79.9742 149.85 79.1745 150.383 78.7746L160.989 70.8201C161.339 70.557 161.821 70.5531 162.176 70.8105L172.938 78.6135C173.504 79.0236 173.485 79.8727 172.902 80.2576L170.873 81.5974L170.036 80.7785C169.943 80.687 169.961 80.5317 170.073 80.4642L171.476 79.6203C171.6 79.5457 171.606 79.368 171.488 79.285L162.808 73.2176C162.679 73.1273 162.501 73.2149 162.494 73.3723L162.323 77.0911ZM161.15 73.0251C161.15 72.8603 160.962 72.7662 160.83 72.865L152.227 79.3131C152.12 79.3929 152.12 79.5525 152.226 79.6327L161.304 86.4909C161.469 86.6158 161.695 86.6258 161.87 86.516L166.141 83.8481C166.214 83.8027 166.307 83.8087 166.374 83.863L167.24 84.5719C167.346 84.6584 167.336 84.8233 167.22 84.896L162.115 88.1037C162.057 88.1402 162.021 88.2042 162.021 88.273V92.3315C162.021 92.4975 162.212 92.5913 162.343 92.4898L170.932 85.8637C171.036 85.7834 171.036 85.6262 170.931 85.5464L161.785 78.563C161.712 78.5076 161.611 78.5084 161.54 78.5649L157.667 81.6153C157.59 81.6757 157.481 81.6719 157.409 81.6064L156.664 80.9311C156.572 80.848 156.577 80.7023 156.675 80.6258L161.074 77.1651C161.122 77.1272 161.15 77.0693 161.15 77.0079V73.0251Z" fill="#06B7C4"/>
<rect opacity="0.01" x="149.345" y="102.995" width="24.5241" height="24.5241" fill="#0092E4"/>
<path fill-rule="evenodd" clip-rule="evenodd" d="M162.351 109.709C162.348 109.776 162.378 109.839 162.431 109.879L172.68 117.528C173.214 117.926 173.216 118.724 172.686 119.126L162.21 127.063C161.853 127.333 161.36 127.334 161.003 127.065L150.441 119.095C149.922 118.703 149.909 117.927 150.415 117.519L152.03 116.216C152.102 116.157 152.205 116.157 152.278 116.214L152.828 116.642C152.985 116.764 152.982 117.002 152.822 117.12L151.63 117.999C151.522 118.079 151.521 118.239 151.628 118.32L160.523 125.054C160.655 125.153 160.844 125.059 160.844 124.894V120.826L150.411 112.992C149.878 112.592 149.878 111.793 150.411 111.393L161.017 103.438C161.368 103.175 161.849 103.171 162.204 103.429L172.967 111.232C173.532 111.642 173.514 112.491 172.931 112.876L170.902 114.216L170.065 113.397C169.971 113.305 169.989 113.15 170.101 113.082L171.504 112.239C171.629 112.164 171.635 111.986 171.516 111.903L162.837 105.836C162.707 105.745 162.529 105.833 162.522 105.99L162.351 109.709ZM161.179 105.643C161.179 105.478 160.99 105.384 160.859 105.483L152.255 111.931C152.148 112.011 152.148 112.171 152.254 112.251L161.332 119.109C161.498 119.234 161.723 119.244 161.899 119.134L166.17 116.466C166.242 116.421 166.336 116.427 166.402 116.481L167.269 117.19C167.374 117.277 167.364 117.441 167.248 117.514L162.143 120.722C162.085 120.758 162.05 120.822 162.05 120.891V124.95C162.05 125.116 162.24 125.209 162.372 125.108L170.96 118.482C171.065 118.402 171.064 118.244 170.96 118.165L161.813 111.181C161.741 111.126 161.64 111.127 161.568 111.183L157.695 114.233C157.619 114.294 157.509 114.29 157.437 114.225L156.692 113.549C156.6 113.466 156.606 113.32 156.703 113.244L161.102 109.783C161.15 109.745 161.179 109.687 161.179 109.626V105.643Z" fill="#AF481A"/>
<rect opacity="0.01" x="149.317" y="6.12988" width="24.5241" height="24.5241" fill="black"/>
<path fill-rule="evenodd" clip-rule="evenodd" d="M162.323 12.8441C162.32 12.9104 162.35 12.9738 162.403 13.0135L172.652 20.6627C173.185 21.0609 173.188 21.8593 172.658 22.2612L162.181 30.1981C161.825 30.4682 161.332 30.4687 160.975 30.1993L150.413 22.2298C149.893 21.8379 149.881 21.0621 150.387 20.6534L152.001 19.3505C152.073 19.2922 152.176 19.2913 152.25 19.3483L152.8 19.7766C152.957 19.8987 152.954 20.1368 152.794 20.2548L151.601 21.134C151.494 21.2133 151.493 21.3738 151.599 21.4544L160.495 28.1884C160.626 28.2881 160.815 28.1941 160.815 28.0289V23.9603L150.382 16.1272C149.849 15.7271 149.85 14.9274 150.383 14.5275L160.989 6.57305C161.339 6.30997 161.821 6.30608 162.176 6.56344L172.938 14.3664C173.504 14.7766 173.485 15.6256 172.902 16.0106L170.873 17.3504L170.036 16.5315C169.943 16.4399 169.961 16.2846 170.073 16.2171L171.476 15.3733C171.6 15.2986 171.606 15.1209 171.488 15.038L162.808 8.97051C162.679 8.88022 162.501 8.96783 162.494 9.12525L162.323 12.8441ZM161.15 8.77801C161.15 8.61323 160.962 8.51914 160.83 8.61796L152.227 15.066C152.12 15.1458 152.12 15.3054 152.226 15.3857L161.304 22.2438C161.469 22.3687 161.695 22.3787 161.87 22.2689L166.141 19.6011C166.214 19.5556 166.307 19.5616 166.374 19.6159L167.24 20.3248C167.346 20.4113 167.336 20.5762 167.22 20.6489L162.115 23.8566C162.057 23.8932 162.021 23.9571 162.021 24.0259V28.0844C162.021 28.2505 162.212 28.3442 162.343 28.2428L170.932 21.6167C171.036 21.5364 171.036 21.3792 170.931 21.2994L161.785 14.3159C161.712 14.2605 161.611 14.2613 161.54 14.3178L157.667 17.3682C157.59 17.4286 157.481 17.4249 157.409 17.3593L156.664 16.6841C156.572 16.6009 156.577 16.4552 156.675 16.3787L161.074 12.9181C161.122 12.8801 161.15 12.8222 161.15 12.7609V8.77801Z" fill="#22222A"/>
<rect opacity="0.01" x="149.183" y="38.6152" width="23.991" height="23.991" fill="#592BAA"/>
<path fill-rule="evenodd" clip-rule="evenodd" d="M161.907 45.1812C161.904 45.2475 161.934 45.3109 161.987 45.3506L171.988 52.8149C172.521 53.213 172.524 54.0114 171.994 54.4134L161.781 62.1503C161.425 62.4205 160.932 62.4209 160.575 62.1515L150.278 54.382C149.759 53.9901 149.746 53.2143 150.252 52.8056L151.807 51.5507C151.879 51.4923 151.982 51.4914 152.055 51.5485L152.584 51.96C152.741 52.0821 152.738 52.3202 152.578 52.4382L151.423 53.2897C151.316 53.369 151.315 53.5295 151.421 53.6102L160.111 60.1889C160.243 60.2886 160.432 60.1947 160.432 60.0294V56.058L150.249 48.4127C149.716 48.0125 149.716 47.2128 150.249 46.813L160.589 39.0584C160.94 38.7953 161.421 38.7914 161.776 39.0488L172.266 46.6543C172.832 47.0644 172.813 47.9135 172.23 48.2984L170.271 49.5918L169.457 48.7947C169.363 48.7031 169.381 48.5478 169.493 48.4803L170.855 47.6612C170.98 47.5865 170.986 47.4088 170.867 47.3258L162.388 41.3986C162.259 41.3084 162.081 41.396 162.074 41.5534L161.907 45.1812ZM160.76 41.2149C160.76 41.0502 160.572 40.9561 160.44 41.0549L152.035 47.3541C151.928 47.4339 151.928 47.5935 152.034 47.6737L160.904 54.3748C161.07 54.4997 161.295 54.5097 161.471 54.3999L165.64 51.7957C165.712 51.7503 165.806 51.7562 165.872 51.8105L166.713 52.4982C166.819 52.5847 166.808 52.7496 166.692 52.8223L161.705 55.9557C161.647 55.9923 161.612 56.0563 161.612 56.1251V60.0841C161.612 60.2502 161.802 60.3439 161.934 60.2424L170.324 53.7693C170.428 53.689 170.428 53.5318 170.324 53.452L161.383 46.6258C161.311 46.5704 161.21 46.5712 161.138 46.6277L157.355 49.6075C157.278 49.6679 157.169 49.6641 157.097 49.5985L156.375 48.9439C156.283 48.8607 156.288 48.7151 156.385 48.6385L160.683 45.2576C160.732 45.2197 160.76 45.1618 160.76 45.1004V41.2149Z" fill="#592BAA"/>
<circle cx="143.218" cy="114.935" r="3.27914" fill="white" stroke="#0278D5" stroke-width="0.819785"/>
<path d="M143.88 114.678L144.157 114.955V115.532H143.644V114.678H143.88ZM144.925 114.251V115.959C144.925 116.147 144.772 116.301 144.584 116.301H141.851C141.663 116.301 141.51 116.147 141.51 115.959L141.511 113.91C141.511 113.722 141.663 113.568 141.851 113.568H142.876L143.217 113.91H144.584C144.772 113.91 144.925 114.064 144.925 114.251ZM144.413 114.849L143.986 114.422H143.388V115.788H144.413V114.849Z" fill="#0092E4"/>
<circle cx="143.218" cy="52.5187" r="3.27914" fill="white" stroke="#0278D5" stroke-width="0.819785"/>
<circle cx="143.218" cy="18.4737" r="3.27914" fill="white" stroke="#0278D5" stroke-width="0.819785"/>
<path d="M143.881 18.2174L144.157 18.4941V19.0713H143.645V18.2174H143.881ZM144.926 17.7905V19.4982C144.926 19.6861 144.772 19.8397 144.584 19.8397H141.852C141.664 19.8397 141.51 19.6861 141.51 19.4982L141.512 17.449C141.512 17.2611 141.664 17.1074 141.852 17.1074H142.876L143.218 17.449H144.584C144.772 17.449 144.926 17.6027 144.926 17.7905ZM144.413 18.3882L143.986 17.9613H143.389V19.3274H144.413V18.3882Z" fill="#0092E4"/>
<path d="M138.93 19.8594H129L129.5 115H140" stroke="#0092E4" stroke-width="1.13484"/>
<path d="M138.93 82.2754H129" stroke="#0092E4" stroke-width="1.13484" stroke-dasharray="2.84 2.84"/>
<path d="M138.93 52.4863H129" stroke="#0092E4" stroke-width="1.13484" stroke-dasharray="2.84 2.84"/>
<path d="M129 67L72 67" stroke="#0092E4" stroke-width="0.8"/>
</svg>
